X: 11539
T: Eddie The Fiddlemaker
R: jig
M: 6/8
K: Gdorian
G2 A B2 c|dBG cAF|G2 A B2 d|cAF DF/G/A|
G2 A B2 c|dB/A/G c2 A|d>ed cAF|G3 G2:|
g2 a b2 a|gfg f2 a|g2 a b2 g|fdc dfa|
1 g3 f2 g|e3 d2 c|d>ed cAF|G3 G2:|
2 g2 a bg/a/b|afa g2 e|f2 d cAF|G3 G2||
A2 B c2 d|ecA dBG|A2 B c2 e|dBG DGB|
A2 B c2 d|ecA GBd|efe dBG|A3 A2:|
a2 b c'2 b|age gab|a2 b c'2 a|ged egb|
1 a2 b g2 a|f2 g e2 d|efe dBG|A3 A2:|
2 a2 b c'a/b/c'|bgb a2 f|g2 e dBG|A3 A2||

